assets/premierepro/original.svg

<svg viewBox="0 0 128 128" xmlns="http://www.w3.org/2000/svg"><path d="m0 0h128v128h-128z" fill="#2a0634"/><g fill="#e976b9"><path d="m0 0v128h128v-128zm123 123h-118v-118h118z"/><path d="m69 47.1c-.1-9.4-7.8-16.9-17.2-16.8h-18.5v58.5h9.6v-21.3h8.3c9.8-.1 17.8-8.2 17.8-18.1zm-9.6 3c0 5-4.1 9.1-9.1 9.1h-7.4v-20.7h7.4c5 0 9.1 4.1 9.1 9.1zm17.7 38.7v-39.9s10.2-5.1 20.2-3.8v8.3s-7 0-10.1 1.3v34.2h-10.1z"/></g></svg>

<svg xmlns="http://www.w3.org/2000/svg" viewBox="0 0 128 128"><path fill="#2a0634" d="M0 0h128v128H0z"/><g fill="#e976b9"><path d="M0 0v128h128V0zm123 123H5V5h118z"/><path d="M69 47.1c-.1-9.4-7.8-16.9-17.2-16.8H33.3v58.5h9.6V67.5h8.3C61 67.4 69 59.3 69 49.4zm-9.6 3c0 5-4.1 9.1-9.1 9.1h-7.4V38.5h7.4c5 0 9.1 4.1 9.1 9.1zm17.7 38.7V48.9s10.2-5.1 20.2-3.8v8.3s-7 0-10.1 1.3v34.2H77.1z"/></g></svg>
